;FLAVOR:Marlin
;TIME:2640
;Filament used: 2.2919m
;Layer height: 0.2
;MINX:74.141
;MINY:66.7
;MINZ:0.3
;MAXX:125.86
;MAXY:96.3
;MAXZ:26.5
;Generated with Cura_SteamEngine 4.13.1
M140 S60
M105
M190 S60
M104 S200
M105
M109 S200
M82 ;absolute extrusion mode
G21 ;metric values
 G90 ;absolute positioning
 M82 ;set extruder to absolute mode
 M107 ;start with the fan off
 G28 X0 Y0 ;move X/Y to min endstops
 G28 Z0 ;move Z to min endstops
 G1 Z15.0 F120 ;move the platform down 15mm
 G92 E0 ;zero the extruded length
 G1 F200 E6 ;extrude 6 mm of feed stock
 G92 E0 ;zero the extruded length again
 G1 F120 
 ;Put printing message on LCD screen
 M117 Printing...
G92 E0
G92 E0
G1 F1500 E-6.5
;LAYER_COUNT:133
;LAYER:0
M107
G0 F3600 X76.021 Y69.539 Z0.3
;TYPE:SKIRT
G1 F1500 E0
G1 F1800 X76.426 Y69.102 E0.02973
G1 X76.543 Y68.985 E0.03798
G1 X77.129 Y68.455 E0.0774
G1 X77.765 Y67.988 E0.11677
G1 X78.445 Y67.587 E0.15615
G1 X79.163 Y67.257 E0.19557
G1 X79.91 Y67.002 E0.23495
G1 X80.679 Y66.823 E0.27434
G1 X81.463 Y66.723 E0.31378
G1 X82.058 Y66.7 E0.34348
G1 X82.942 Y66.7 E0.38758
G1 X83.731 Y66.74 E0.427
G1 X84.511 Y66.859 E0.46636
G1 X85.276 Y67.057 E0.50579
G1 X86.016 Y67.331 E0.54516
G1 X86.725 Y67.679 E0.58456
G1 X87.396 Y68.097 E0.624
G1 X88.02 Y68.58 E0.66337
G1 X88.129 Y68.681 E0.67078
G1 X88.344 Y68.588 E0.68247
G1 X89.098 Y68.351 E0.7219
G1 X89.871 Y68.191 E0.76128
G1 X90.657 Y68.11 E0.8007
G1 X91.441 Y68.1 E0.83982
G1 X92.23 Y68.14 E0.87923
G1 X93.01 Y68.259 E0.9186
G1 X93.775 Y68.457 E0.95802
G1 X94.379 Y68.681 E0.99016
G1 X94.629 Y68.455 E1.00698
G1 X95.265 Y67.988 E1.04634
G1 X95.945 Y67.587 E1.08573
G1 X96.663 Y67.257 E1.12515
G1 X97.41 Y67.002 E1.16453
G1 X98.179 Y66.823 E1.20392
G1 X98.963 Y66.723 E1.24335
G1 X99.558 Y66.7 E1.27306
G1 X100.442 Y66.7 E1.31716
G1 X101.231 Y66.74 E1.35657
G1 X102.011 Y66.859 E1.39594
G1 X102.776 Y67.057 E1.43536
G1 X103.516 Y67.331 E1.47473
G1 X104.225 Y67.679 E1.51413
G1 X104.896 Y68.097 E1.55357
G1 X105.52 Y68.58 E1.59294
G1 X105.629 Y68.681 E1.60036
G1 X105.844 Y68.588 E1.61204
G1 X106.598 Y68.351 E1.65148
G1 X107.371 Y68.191 E1.69086
G1 X108.157 Y68.11 E1.73028
G1 X108.941 Y68.1 E1.7694
G1 X109.73 Y68.14 E1.80881
G1 X110.51 Y68.259 E1.84817
G1 X111.275 Y68.457 E1.8876
G1 X111.879 Y68.681 E1.91974
G1 X112.129 Y68.455 E1.93655
G1 X112.765 Y67.988 E1.97592
G1 X113.445 Y67.587 E2.0153
G1 X114.163 Y67.257 E2.05472
G1 X114.91 Y67.002 E2.0941
G1 X115.679 Y66.823 E2.1335
G1 X116.463 Y66.723 E2.17293
G1 X117.058 Y66.7 E2.20263
G1 X117.942 Y66.7 E2.24674
G1 X118.731 Y66.74 E2.28615
G1 X119.511 Y66.859 E2.32551
G1 X120.276 Y67.057 E2.36494
G1 X121.016 Y67.331 E2.40431
G1 X121.725 Y67.679 E2.44371
G1 X122.396 Y68.097 E2.48315
G1 X123.02 Y68.58 E2.52252
G1 X123.457 Y68.985 E2.55224
G1 X123.574 Y69.102 E2.5605
G1 X124.104 Y69.688 E2.59992
G1 X124.571 Y70.324 E2.63928
G1 X124.972 Y71.004 E2.67867
G1 X125.302 Y71.722 E2.71809
G1 X125.557 Y72.469 E2.75747
G1 X125.736 Y73.238 E2.79686
G1 X125.836 Y74.022 E2.83629
G1 X125.859 Y74.616 E2.86595
G1 X125.86 Y88.382 E3.55274
G1 X125.82 Y89.171 E3.59215
G1 X125.701 Y89.952 E3.63157
G1 X125.503 Y90.716 E3.67094
G1 X125.229 Y91.457 E3.71036
G1 X124.881 Y92.166 E3.74976
G1 X124.464 Y92.836 E3.78913
G1 X123.981 Y93.461 E3.82854
G1 X123.575 Y93.898 E3.8583
G1 X123.458 Y94.015 E3.86655
G1 X122.872 Y94.545 E3.90597
G1 X122.236 Y95.012 E3.94534
G1 X121.556 Y95.413 E3.98472
G1 X120.838 Y95.743 E4.02415
G1 X120.091 Y95.998 E4.06353
G1 X119.322 Y96.177 E4.10292
G1 X118.538 Y96.277 E4.14235
G1 X117.943 Y96.3 E4.17206
G1 X117.058 Y96.3 E4.21621
G1 X116.269 Y96.26 E4.25562
G1 X115.489 Y96.141 E4.29499
G1 X114.724 Y95.943 E4.33441
G1 X113.984 Y95.669 E4.37378
G1 X113.275 Y95.321 E4.41318
G1 X112.604 Y94.903 E4.45262
G1 X111.98 Y94.42 E4.49199
G1 X111.872 Y94.32 E4.49933
G1 X111.655 Y94.413 E4.51111
G1 X110.902 Y94.65 E4.5505
G1 X110.128 Y94.809 E4.58992
G1 X109.343 Y94.89 E4.62929
G1 X108.56 Y94.9 E4.66836
G1 X107.771 Y94.86 E4.70777
G1 X106.991 Y94.741 E4.74714
G1 X106.226 Y94.543 E4.78656
G1 X105.622 Y94.319 E4.8187
G1 X105.372 Y94.545 E4.83551
G1 X104.736 Y95.012 E4.87488
G1 X104.056 Y95.413 E4.91426
G1 X103.338 Y95.743 E4.95369
G1 X102.591 Y95.998 E4.99307
G1 X101.822 Y96.177 E5.03246
G1 X101.038 Y96.277 E5.07189
G1 X100.443 Y96.3 E5.10159
G1 X99.558 Y96.3 E5.14575
G1 X98.769 Y96.26 E5.18516
G1 X97.989 Y96.141 E5.22453
G1 X97.224 Y95.943 E5.26395
G1 X96.484 Y95.669 E5.30332
G1 X95.775 Y95.321 E5.34272
G1 X95.104 Y94.903 E5.38216
G1 X94.48 Y94.42 E5.42153
G1 X94.372 Y94.32 E5.42887
G1 X94.155 Y94.413 E5.44065
G1 X93.402 Y94.65 E5.48004
G1 X92.628 Y94.809 E5.51946
G1 X91.843 Y94.89 E5.55883
G1 X91.06 Y94.9 E5.5979
G1 X90.271 Y94.86 E5.63731
G1 X89.491 Y94.741 E5.67667
G1 X88.726 Y94.543 E5.7161
G1 X88.122 Y94.319 E5.74824
G1 X87.872 Y94.545 E5.76505
G1 X87.236 Y95.012 E5.80442
G1 X86.556 Y95.413 E5.8438
G1 X85.838 Y95.743 E5.88322
G1 X85.091 Y95.998 E5.9226
G1 X84.322 Y96.177 E5.96199
G1 X83.538 Y96.277 E6.00143
G1 X82.943 Y96.3 E6.03113
G1 X82.058 Y96.3 E6.07529
G1 X81.269 Y96.26 E6.1147
G1 X80.489 Y96.141 E6.15406
G1 X79.724 Y95.943 E6.19349
G1 X78.984 Y95.669 E6.23286
G1 X78.275 Y95.321 E6.27226
G1 X77.604 Y94.903 E6.3117
G1 X76.98 Y94.42 E6.35107
G1 X76.543 Y94.015 E6.38079
G1 X76.426 Y93.898 E6.38905
G1 X75.896 Y93.312 E6.42847
G1 X75.429 Y92.676 E6.46783
G1 X75.028 Y91.996 E6.50722
G1 X74.698 Y91.278 E6.54664
G1 X74.443 Y90.531 E6.58602
G1 X74.264 Y89.762 E6.62541
G1 X74.164 Y88.978 E6.66484
G1 X74.141 Y88.383 E6.69455
G1 X74.141 Y74.617 E7.38134
G1 X74.181 Y73.828 E7.42075
G1 X74.3 Y73.048 E7.46012
G1 X74.498 Y72.283 E7.49954
G1 X74.772 Y71.543 E7.53891
G1 X75.12 Y70.834 E7.57831
G1 X75.538 Y70.163 E7.61775
G1 X76.021 Y69.539 E7.65712
G0 F3600 X76.416 Y69.694
G1 F1800 X76.825 Y69.267 E7.68662
G1 X77.397 Y68.753 E7.72499
G1 X78.019 Y68.3 E7.76337
G1 X78.684 Y67.914 E7.80174
G1 X79.386 Y67.599 E7.84012
G1 X80.117 Y67.359 E7.87851
G1 X80.868 Y67.196 E7.91685
G1 X81.633 Y67.112 E7.95524
G1 X82.058 Y67.1 E7.97646
G1 X82.942 Y67.1 E8.02056
G1 X83.71 Y67.14 E8.05893
G1 X84.47 Y67.259 E8.0973
G1 X85.213 Y67.457 E8.13567
G1 X85.932 Y67.731 E8.17405
G1 X86.618 Y68.078 E8.21241
G1 X87.265 Y68.494 E8.25078
G1 X87.865 Y68.975 E8.28915
G1 X88.045 Y69.145 E8.3015
G1 X88.71 Y68.883 E8.33716
G1 X89.451 Y68.677 E8.37553
G1 X90.209 Y68.549 E8.41388
G1 X91.059 Y68.5 E8.45636
G1 X91.441 Y68.5 E8.47542
G1 X92.209 Y68.54 E8.51379
G1 X92.969 Y68.659 E8.55216
G1 X93.712 Y68.857 E8.59053
G1 X94.431 Y69.131 E8.62891
G1 X94.46 Y69.146 E8.63054
G1 X94.897 Y68.753 E8.65986
G1 X95.519 Y68.3 E8.69825
G1 X96.184 Y67.914 E8.73661
G1 X96.886 Y67.599 E8.775
G1 X97.617 Y67.359 E8.81339
G1 X98.368 Y67.196 E8.85173
G1 X99.133 Y67.112 E8.89012
G1 X99.558 Y67.1 E8.91133
G1 X100.442 Y67.1 E8.95544
G1 X101.21 Y67.14 E8.9938
G1 X101.97 Y67.259 E9.03218
G1 X102.713 Y67.457 E9.07055
G1 X103.432 Y67.731 E9.10893
G1 X104.118 Y68.078 E9.14729
G1 X104.765 Y68.494 E9.18566
G1 X105.365 Y68.975 E9.22403
G1 X105.545 Y69.145 E9.23638
G1 X106.21 Y68.883 E9.27204
G1 X106.951 Y68.677 E9.31041
G1 X107.709 Y68.549 E9.34876
G1 X108.559 Y68.5 E9.39124
G1 X108.941 Y68.5 E9.4103
G1 X109.709 Y68.54 E9.44866
G1 X110.469 Y68.659 E9.48704
G1 X111.212 Y68.857 E9.52541
G1 X111.931 Y69.131 E9.56379
G1 X111.96 Y69.146 E9.56542
G1 X112.397 Y68.753 E9.59474
G1 X113.019 Y68.3 E9.63313
G1 X113.684 Y67.914 E9.67149
G1 X114.386 Y67.599 E9.70988
G1 X115.117 Y67.359 E9.74827
G1 X115.868 Y67.196 E9.78661
G1 X116.633 Y67.112 E9.825
G1 X117.058 Y67.1 E9.84621
G1 X117.942 Y67.1 E9.89032
G1 X118.71 Y67.14 E9.92868
G1 X119.47 Y67.259 E9.96706
G1 X120.213 Y67.457 E10.00542
G1 X120.932 Y67.731 E10.04381
G1 X121.618 Y68.078 E10.08217
G1 X122.265 Y68.494 E10.12054
G1 X122.865 Y68.975 E10.15891
G1 X123.292 Y69.384 E10.18841
G1 X123.806 Y69.956 E10.22677
G1 X124.259 Y70.578 E10.26516
G1 X124.645 Y71.243 E10.30352
G1 X124.96 Y71.945 E10.34191
G1 X125.2 Y72.676 E10.38029
G1 X125.363 Y73.427 E10.41863
G1 X125.447 Y74.192 E10.45703
G1 X125.459 Y74.616 E10.47819
G1 X125.46 Y88.382 E11.16498
G1 X125.42 Y89.151 E11.2034
G1 X125.301 Y89.91 E11.24173
G1 X125.103 Y90.654 E11.28014
G1 X124.829 Y91.373 E11.31852
G1 X124.482 Y92.059 E11.35688
G1 X124.066 Y92.706 E11.39525
G1 X123.585 Y93.306 E11.43362
G1 X123.176 Y93.733 E11.46312
G1 X122.604 Y94.247 E11.50148
G1 X121.982 Y94.7 E11.53987
G1 X121.317 Y95.086 E11.57823
G1 X120.615 Y95.401 E11.61662
G1 X119.884 Y95.641 E11.65501
G1 X119.133 Y95.804 E11.69335
G1 X118.368 Y95.888 E11.73174
G1 X117.943 Y95.9 E11.75295
G1 X117.058 Y95.9 E11.79711
G1 X116.29 Y95.86 E11.83547
G1 X115.53 Y95.741 E11.87385
G1 X114.787 Y95.543 E11.91222
G1 X114.068 Y95.269 E11.9506
G1 X113.382 Y94.922 E11.98896
G1 X112.735 Y94.506 E12.02733
G1 X112.135 Y94.025 E12.0657
G1 X111.955 Y93.856 E12.07802
G1 X111.29 Y94.117 E12.11366
G1 X110.548 Y94.323 E12.15208
G1 X109.79 Y94.451 E12.19043
G1 X108.941 Y94.5 E12.23285
G1 X108.56 Y94.5 E12.25186
G1 X107.792 Y94.46 E12.29023
G1 X107.032 Y94.341 E12.32861
G1 X106.289 Y94.143 E12.36697
G1 X105.57 Y93.869 E12.40536
G1 X105.541 Y93.854 E12.40699
G1 X105.104 Y94.247 E12.43631
G1 X104.482 Y94.7 E12.4747
G1 X103.817 Y95.086 E12.51306
G1 X103.115 Y95.401 E12.55145
G1 X102.384 Y95.641 E12.58983
G1 X101.633 Y95.804 E12.62817
G1 X100.868 Y95.888 E12.66657
G1 X100.443 Y95.9 E12.68778
G1 X99.558 Y95.9 E12.73193
G1 X98.79 Y95.86 E12.7703
G1 X98.03 Y95.741 E12.80868
G1 X97.287 Y95.543 E12.84704
G1 X96.568 Y95.269 E12.88543
G1 X95.882 Y94.922 E12.92378
G1 X95.235 Y94.506 E12.96216
G1 X94.635 Y94.025 E13.00052
G1 X94.455 Y93.856 E13.01284
G1 X93.79 Y94.117 E13.04848
G1 X93.048 Y94.323 E13.0869
G1 X92.29 Y94.451 E13.12525
G1 X91.441 Y94.5 E13.16768
G1 X91.06 Y94.5 E13.18669
G1 X90.292 Y94.46 E13.22505
G1 X89.532 Y94.341 E13.26343
G1 X88.789 Y94.143 E13.3018
G1 X88.07 Y93.869 E13.34018
G1 X88.041 Y93.854 E13.34181
G1 X87.604 Y94.247 E13.37113
G1 X86.982 Y94.7 E13.40952
G1 X86.317 Y95.086 E13.44788
G1 X85.615 Y95.401 E13.48627
G1 X84.884 Y95.641 E13.52466
G1 X84.133 Y95.804 E13.563
G1 X83.368 Y95.888 E13.60139
G1 X82.943 Y95.9 E13.6226
G1 X82.058 Y95.9 E13.66676
G1 X81.29 Y95.86 E13.70512
G1 X80.53 Y95.741 E13.7435
G1 X79.787 Y95.543 E13.78186
G1 X79.068 Y95.269 E13.82025
G1 X78.382 Y94.922 E13.85861
G1 X77.735 Y94.506 E13.89698
G1 X77.135 Y94.025 E13.93535
G1 X76.708 Y93.616 E13.96485
G1 X76.194 Y93.044 E14.00321
G1 X75.741 Y92.422 E14.0416
G1 X75.355 Y91.757 E14.07996
G1 X75.04 Y91.055 E14.11835
G1 X74.8 Y90.324 E14.15673
G1 X74.637 Y89.573 E14.19507
G1 X74.553 Y88.808 E14.23347
G1 X74.541 Y88.383 E14.25468
G1 X74.541 Y74.617 E14.94147
G1 X74.581 Y73.849 E14.97984
G1 X74.7 Y73.089 E15.01822
G1 X74.898 Y72.346 E15.05658
G1 X75.172 Y71.627 E15.09497
G1 X75.519 Y70.941 E15.13332
G1 X75.935 Y70.294 E15.1717
G1 X76.416 Y69.694 E15.21006
G0 F3600 X76.333 Y70.428
G1 F1800 X76.991 Y69.667 E15.26025
G1 X77.108 Y69.55 E15.26851
G1 X77.665 Y69.05 E15.30585
G1 X78.271 Y68.613 E15.34312
G1 X78.921 Y68.242 E15.38046
G1 X79.607 Y67.943 E15.4178
G1 X80.321 Y67.719 E15.45513
G1 X81.054 Y67.572 E15.49243
G1 X82.058 Y67.5 E15.54265
G1 X82.942 Y67.5 E15.58675
G1 X83.689 Y67.54 E15.62407
G1 X84.427 Y67.659 E15.66137
G1 X85.149 Y67.857 E15.69872
G1 X85.845 Y68.13 E15.73602
G1 X86.508 Y68.477 E15.77335
G1 X87.131 Y68.892 E15.8107
G1 X87.892 Y69.55 E15.86089
G1 X87.971 Y69.629 E15.86646
G1 X88.367 Y69.438 E15.88839
G1 X89.072 Y69.188 E15.92571
G1 X89.799 Y69.014 E15.96301
G1 X90.541 Y68.919 E16.00033
G1 X91.059 Y68.9 E16.02619
G1 X91.441 Y68.9 E16.04525
G1 X92.188 Y68.94 E16.08257
G1 X92.926 Y69.059 E16.11986
G1 X93.648 Y69.257 E16.15721
G1 X94.344 Y69.53 E16.19451
G1 X94.53 Y69.628 E16.205
G1 X94.608 Y69.55 E16.2105
G1 X95.165 Y69.05 E16.24785
G1 X95.771 Y68.613 E16.28512
G1 X96.421 Y68.242 E16.32246
G1 X97.107 Y67.943 E16.3598
G1 X97.821 Y67.719 E16.39713
G1 X98.554 Y67.572 E16.43443
G1 X99.558 Y67.5 E16.48465
G1 X100.442 Y67.5 E16.52875
G1 X101.189 Y67.54 E16.56607
G1 X101.927 Y67.659 E16.60336
G1 X102.649 Y67.857 E16.64071
G1 X103.345 Y68.13 E16.67801
G1 X104.008 Y68.477 E16.71535
G1 X104.631 Y68.892 E16.75269
G1 X105.392 Y69.55 E16.80288
G1 X105.471 Y69.629 E16.80846
G1 X105.867 Y69.438 E16.83039
G1 X106.572 Y69.188 E16.86771
G1 X107.299 Y69.014 E16.90501
G1 X108.041 Y68.919 E16.94233
G1 X108.559 Y68.9 E16.96819
G1 X108.941 Y68.9 E16.98725
G1 X109.688 Y68.94 E17.02457
G1 X110.426 Y69.059 E17.06186
G1 X111.148 Y69.257 E17.09921
G1 X111.844 Y69.53 E17.13651
G1 X112.03 Y69.628 E17.147
G1 X112.108 Y69.55 E17.1525
G1 X112.665 Y69.05 E17.18985
G1 X113.271 Y68.613 E17.22712
G1 X113.921 Y68.242 E17.26446
G1 X114.607 Y67.943 E17.30179
G1 X115.321 Y67.719 E17.33913
G1 X116.054 Y67.572 E17.37642
G1 X117.058 Y67.5 E17.42664
G1 X117.942 Y67.5 E17.47075
G1 X118.689 Y67.54 E17.50807
G1 X119.427 Y67.659 E17.54536
G1 X120.149 Y67.857 E17.58271
G1 X120.845 Y68.13 E17.62001
G1 X121.508 Y68.477 E17.65735
G1 X122.131 Y68.892 E17.69469
G1 X122.892 Y69.55 E17.74488
G1 X123.009 Y69.667 E17.75314
G1 X123.509 Y70.224 E17.79048
G1 X123.946 Y70.83 E17.82775
G1 X124.317 Y71.48 E17.86509
G1 X124.616 Y72.166 E17.90243
G1 X124.84 Y72.88 E17.93976
G1 X124.987 Y73.613 E17.97706
G1 X125.059 Y74.616 E18.02723
G1 X125.06 Y88.382 E18.71402
G1 X125.02 Y89.129 E18.75134
G1 X124.901 Y89.868 E18.78868
G1 X124.703 Y90.589 E18.82598
G1 X124.43 Y91.286 E18.86333
G1 X124.084 Y91.949 E18.90064
G1 X123.669 Y92.571 E18.93795
G1 X123.01 Y93.333 E18.98821
G1 X122.893 Y93.45 E18.99646
G1 X122.336 Y93.95 E19.0338
G1 X121.73 Y94.387 E19.07108
G1 X121.08 Y94.758 E19.10842
G1 X120.394 Y95.057 E19.14575
G1 X119.68 Y95.281 E19.18309
G1 X118.947 Y95.428 E19.22038
G1 X117.943 Y95.5 E19.2706
G1 X117.058 Y95.5 E19.31475
G1 X116.311 Y95.46 E19.35208
G1 X115.573 Y95.341 E19.38937
G1 X114.851 Y95.143 E19.42672
G1 X114.155 Y94.87 E19.46402
G1 X113.492 Y94.523 E19.50135
G1 X112.869 Y94.108 E19.5387
G1 X112.108 Y93.45 E19.58889
G1 X112.029 Y93.371 E19.59446
G1 X111.633 Y93.562 E19.6164
G1 X110.928 Y93.812 E19.65372
G1 X110.2 Y93.986 E19.69106
G1 X109.458 Y94.081 E19.72838
G1 X108.941 Y94.1 E19.75419
G1 X108.56 Y94.1 E19.7732
G1 X107.813 Y94.06 E19.81052
G1 X107.075 Y93.941 E19.84782
G1 X106.353 Y93.743 E19.88517
G1 X105.657 Y93.47 E19.92247
G1 X105.471 Y93.372 E19.93296
G1 X105.393 Y93.45 E19.93846
G1 X104.836 Y93.95 E19.9758
G1 X104.23 Y94.387 E20.01308
G1 X103.58 Y94.758 E20.05041
G1 X102.894 Y95.057 E20.08775
G1 X102.18 Y95.281 E20.12508
G1 X101.447 Y95.428 E20.16238
G1 X100.443 Y95.5 E20.2126
G1 X99.558 Y95.5 E20.25675
G1 X98.811 Y95.46 E20.29407
G1 X98.073 Y95.341 E20.33137
G1 X97.351 Y95.143 E20.36872
G1 X96.655 Y94.87 E20.40602
G1 X95.992 Y94.523 E20.44335
G1 X95.369 Y94.108 E20.4807
G1 X94.608 Y93.45 E20.53089
G1 X94.529 Y93.371 E20.53646
G1 X94.133 Y93.562 E20.5584
G1 X93.428 Y93.812 E20.59571
G1 X92.7 Y93.986 E20.63306
G1 X91.958 Y94.081 E20.67038
G1 X91.441 Y94.1 E20.69619
G1 X91.06 Y94.1 E20.7152
G1 X90.313 Y94.06 E20.75252
G1 X89.575 Y93.941 E20.78981
G1 X88.853 Y93.743 E20.82716
G1 X88.157 Y93.47 E20.86446
G1 X87.971 Y93.372 E20.87495
G1 X87.893 Y93.45 E20.88046
G1 X87.336 Y93.95 E20.9178
G1 X86.73 Y94.387 E20.95507
G1 X86.08 Y94.758 E20.99241
G1 X85.394 Y95.057 E21.02975
G1 X84.68 Y95.281 E21.06708
G1 X83.947 Y95.428 E21.10438
G1 X82.943 Y95.5 E21.1546
G1 X82.058 Y95.5 E21.19875
G1 X81.311 Y95.46 E21.23607
G1 X80.573 Y95.341 E21.27336
G1 X79.851 Y95.143 E21.31072
G1 X79.155 Y94.87 E21.34801
G1 X78.492 Y94.523 E21.38535
G1 X77.869 Y94.108 E21.42269
G1 X77.108 Y93.45 E21.47288
G1 X76.991 Y93.333 E21.48114
